!!!SOCIAL_FUNCTION:	bird dance songs
!!!PDT:	1956
!!!OTL: No_160_Switchgrass_Dance_Song_(j).krn
!!!LANG: Non-Tone
!!!LING_GROUP: Muskogean
!!!REG: Florida
**kern
*staff1
=1-
*clefF4
*k[f#]
*M2/4
4d\
4d\
=2
8d\L
8A\J
4A\
=3
4A\
4A\
=4
8G\L
8D\J
4D\
=5
4D\
4D\
=6
2D\
=7
2D\
=8
4G\
4G\
=9
4G\
4A\
=10
8G\L
8D\J
4D\
=11
4D\
4D\
=12
2D\
=13
2D\
=14
8d\L
8d\J
16d\LL
16A\J
8A\J
=15
8A\L
8A\J
16G\LL
16D\J
8D\J
=16||
*M3/4
8D\L
8D\J
4D\
4D\
=17||
*M2/4
8G\L
8G\J
8G\L
8A\J
=18
(16.B\LL
32A\JK)
8A\J
16G\LL
16D\J
8D\J
=19||
*M3/4
8D\L
8D\J
16D\
16r
8D\
4D\
==
*-
